components/icon/svg/24/journey_single-trip.svg

<?xml version="1.0" encoding="UTF-8"?>
<svg width="24px" height="24px" viewBox="0 0 24 24" version="1.1" xmlns="http://www.w3.org/2000/svg" xmlns:xlink="http://www.w3.org/1999/xlink">
    <!-- Generator: Sketch 64 (93537) - https://sketch.com -->
    <title>ic-db_journey_single-trip_24</title>
    <desc>Created with Sketch.</desc>
    <g id="Symbols:Icon" stroke="none" stroke-width="1" fill="none" fill-rule="evenodd">
        <g id="24dp-Icon/Journey/Single-Trip" fill="#282D37">
            <path d="M17.9844,8 C18.2344,8 18.5258,8.0876 18.7136,8.2754 L18.7136,8.2754 L21.687,11.2801 C21.9061,11.4679 22,11.7496 22,12 C22,12.2504 21.9061,12.5321 21.687,12.7199 L21.687,12.7199 L18.7136,15.7246 C18.5258,15.9124 18.2344,16 17.9844,16 C17.3906,16 16.9844,15.5 16.9844,15 C16.9844,14.75 17.0781,14.5 17.2969,14.2812 L17.2969,14.2812 L18.5884,13.0016 L7.8594,13 C7.4219,14.1562 6.3281,14.9688 5.0047,14.9734 C3.3459,14.9734 2,13.6588 2,12 C2,10.3412 3.3459,9.0266 5.0047,9.0266 C6.3281,9.0312 7.4219,9.8438 7.8594,11 L7.8594,11 L18.5884,10.9984 L17.2969,9.6875 C17.0781,9.5 16.9844,9.2188 16.9844,9 C16.9844,8.4688 17.3594,8 17.9844,8 Z M5.0047,10.9984 C4.4413,10.9984 4.0031,11.4366 4.0031,12 C4.0031,12.5634 4.4413,13.0016 5.0047,13.0016 C5.5681,13.0016 6.0156,12.5625 6.0156,12 C6.0156,11.4375 5.5681,10.9984 5.0047,10.9984 Z" id="🎨-Color"></path>
        </g>
    </g>
</svg>

<svg width="24" height="24" xmlns="http://www.w3.org/2000/svg"><path d="M17.984 8c.25 0 .542.088.73.275l2.973 3.005c.22.188.313.47.313.72s-.094.532-.313.72l-2.973 3.005c-.188.187-.48.275-.73.275-.593 0-1-.5-1-1 0-.25.094-.5.313-.719l1.291-1.28L7.86 13a3.038 3.038 0 01-2.854 1.973C3.345 14.973 2 13.66 2 12c0-1.659 1.346-2.973 3.005-2.973A3.038 3.038 0 017.859 11l10.73-.002-1.292-1.31A.933.933 0 0116.984 9c0-.531.375-1 1-1zm-12.98 2.998a.989.989 0 00-1 1.002.989.989 0 001 1.002A.997.997 0 006.017 12a.997.997 0 00-1.011-1.002z" fill="#282D37" fill-rule="evenodd"/></svg>
